X:1
T:Title
%%score { ( 1 3 ) | ( 2 4 5 ) }
L:1/8
Q:1/4=110
M:4/4
K:G
V:1 treble nm="Grand Piano"
V:3 treble 
V:2 bass 
V:4 bass 
V:5 bass 
V:1
 [DB]2 [B,D]2 [B,D]2 [DB]2 | [Ec]2 E2 E4 | D2 F2 G2 A2 | B2 G2 A4 | [DB]2 [B,D]2 [B,D]2 [DB]2 | %5
w: C.~C.~Case * * *|||||
 [Ec]2 E2 E4 | D2 [Dd]2 [Ec]2 [A,EA]2 | [B,DG]2 [A,DF]2 [B,DG]4 | [GB]6 [Bd]2 | z c3- c4 | %10
w: |||||
 [DF]6 z2 | z G3- G4 | B3 B B2 d2 | d2 c>[EB] [EA]4 | F3 G A2 c2 | B2 A2 [B,DG]4 |] %16
w: ||||||
V:2
 [G,,G,]2 [G,,G,]2 [G,,G,]2 [G,,G,]2 | [C,G,]2 [C,G,C]2 [C,G,C]4 | %2
 [D,F,]2 [D,A,C]2 [D,G,B,]2 [D,F,D]2 | [D,G,D]2 [D,G,B,]2 [D,F,D]4 | %4
 [G,,G,]2 [G,,G,]2 [G,,G,]2 [G,,G,]2 | [C,G,]2 [C,G,C]2 [C,G,C]4 | [B,,G,]2 [B,,G,]2 [C,G,]2 C,2 | %7
 D,2 D,2 G,,4 | G,2 G,2 G,2 G,2 | z A3- A4 | D,2 D,2 D,2 [D,A,C]2 | z B,3- B,4 | %12
 [G,D]3 [G,D] [G,D]2 [G,B,D]2 | [C,C]3- [C,C]/[C,C]/ [C,C]4 | [D,A,D]3 [D,B,D] [D,CD]2 [D,A,D]2 | %15
 [D,D]2 [D,CD]2 G,,4 |] %16
V:3
 x8 | x8 | x8 | x8 | x8 | x8 | x8 | x8 | x8 | .[Bd]2 A,>A, A, A,3 | A,2 A,2 A,2 A2 | %11
 .[CA]2 G,>G, G, G,3 | x8 | E4 z4 | x8 | x8 |] %16
V:4
 x8 | x8 | x8 | x8 | x8 | x8 | x8 | x8 | x8 | [D,A,]2 z2 z4 | x8 | [G,,G,]2 z2 z4 | x8 | x8 | x8 | %15
 x8 |] %16
V:5
 x8 | x8 | x8 | x8 | x8 | x8 | x8 | x8 | x8 | z2 D,>D, D, D,3 | x8 | z2 G,,>G,, G,, G,,3 | x8 | %13
 x8 | x8 | x8 |] %16

